Themes/OneUI/assets/svg/gif.svg

<?xml version="1.0" encoding="UTF-8" standalone="no"?>
<svg
   width="25.836802"
   height="25.836777"
   viewBox="0 0 25.836802 25.836777"
   fill="none"
   version="1.1"
   id="svg674"
   sodipodi:docname="gif.svg"
   xmlns:inkscape="http://www.inkscape.org/namespaces/inkscape"
   xmlns:sodipodi="http://sodipodi.sourceforge.net/DTD/sodipodi-0.dtd"
   xmlns="http://www.w3.org/2000/svg"
   xmlns:svg="http://www.w3.org/2000/svg">
  <sodipodi:namedview
     id="namedview676"
     pagecolor="#ffffff"
     bordercolor="#666666"
     borderopacity="1.0"
     inkscape:showpageshadow="2"
     inkscape:pageopacity="0.0"
     inkscape:pagecheckerboard="0"
     inkscape:deskcolor="#d1d1d1" />
  <g
     clip-path="url(#clip0_1_834)"
     id="g667"
     transform="translate(-0.093399,-0.124023)">
    <path
       d="m 4.8434,0.874023 h 16.3368 c 1.0609,0 2.0783,0.421427 2.8284,1.171577 0.7502,0.75014 1.1716,1.76756 1.1716,2.82842 V 21.2108 c 0,1.0609 -0.4214,2.0783 -1.1716,2.8285 -0.7501,0.7501 -1.7675,1.1715 -2.8284,1.1715 H 4.8434 c -1.06087,0 -2.07828,-0.4214 -2.82843,-1.1715 C 1.26483,23.2891 0.843399,22.2717 0.843399,21.2108 V 4.87402 C 0.843399,3.81316 1.26483,2.79574 2.01497,2.0456 2.76512,1.29545 3.78253,0.874023 4.8434,0.874023 Z"
       stroke="#000000"
       stroke-width="1.5"
       stroke-linejoin="round"
       id="path663" />
    <path
       d="m 7.97939,15.3658 c 0.2799,0.3694 0.6828,0.5596 1.1866,0.5596 0.5261,0 0.91791,-0.1119 1.14171,-0.3246 V 14.4814 H 8.87489 v -1.276 h 3.00001 v 2.9103 l -0.0224,0.0336 c -0.2799,0.3694 -0.6605,0.6381 -1.1418,0.8172 -0.4701,0.1791 -0.99621,0.2686 -1.58951,0.2686 -0.6157,0 -1.1642,-0.1455 -1.6455,-0.4253 -0.4813,-0.2799 -0.8507,-0.6941 -1.1082,-1.209 -0.2574,-0.5149 -0.3918,-1.1194 -0.403,-1.8022 v -0.5485 c 0,-1.097 0.2687,-1.9589 0.7948,-2.5857 0.5373,-0.6269 1.2985,-0.95151 2.25,-0.95151 0.8171,0 1.47751,0.2127 1.95891,0.61561 0.4925,0.4142 0.7835,1.0075 0.8843,1.7687 l 0.0224,0.2015 H 10.3301 L 10.3189,12.1755 C 10.1958,11.392 9.78159,11.0338 9.03159,11.0338 c -0.4813,0 -0.8507,0.1679 -1.097,0.5149 -0.2574,0.3582 -0.3917,0.9067 -0.4029,1.6231 v 0.5373 c 0,0.7164 0.1567,1.2649 0.4477,1.6567 z M 14.483,17.1456 H 12.9271 V 9.81359 h 1.5559 z m 5.9215,-5.9999 h -3.2238 v 1.7238 h 2.8097 v 1.3209 h -2.8097 v 2.9552 H 15.6136 V 9.81359 h 4.7797 v 1.33211 z"
       fill="#000000"
       id="path665" />
  </g>
  <defs
     id="defs672">
    <clipPath
       id="clip0_1_834">
      <rect
         width="26"
         height="26"
         fill="#ffffff"
         id="rect669"
         x="0"
         y="0" />
    </clipPath>
  </defs>
</svg>

<svg width="26" height="26" viewBox="0 0 26 26" fill="none" xmlns="http://www.w3.org/2000/svg">
<g clip-path="url(#clip0_1_834)">
<path d="M4.8434 0.874023H21.1802C22.2411 0.874023 23.2585 1.29545 24.0086 2.0456C24.7588 2.79574 25.1802 3.81316 25.1802 4.87402V21.2108C25.1802 22.2717 24.7588 23.2891 24.0086 24.0393C23.2585 24.7894 22.2411 25.2108 21.1802 25.2108H4.8434C3.78253 25.2108 2.76512 24.7894 2.01497 24.0393C1.26483 23.2891 0.843399 22.2717 0.843399 21.2108V4.87402C0.843399 3.81316 1.26483 2.79574 2.01497 2.0456C2.76512 1.29545 3.78253 0.874023 4.8434 0.874023V0.874023Z" stroke="black" stroke-width="1.5" stroke-linejoin="round"/>
<path d="M7.97939 15.3658C8.25929 15.7352 8.66219 15.9254 9.16599 15.9254C9.69209 15.9254 10.0839 15.8135 10.3077 15.6008V14.4814H8.87489V13.2054H11.8749V16.1157L11.8525 16.1493C11.5726 16.5187 11.192 16.7874 10.7107 16.9665C10.2406 17.1456 9.71449 17.2351 9.12119 17.2351C8.50549 17.2351 7.95699 17.0896 7.47569 16.8098C6.99439 16.5299 6.62499 16.1157 6.36749 15.6008C6.11009 15.0859 5.97569 14.4814 5.96449 13.7986V13.2501C5.96449 12.1531 6.23319 11.2912 6.75929 10.6644C7.29659 10.0375 8.05779 9.71289 9.00929 9.71289C9.82639 9.71289 10.4868 9.92559 10.9682 10.3285C11.4607 10.7427 11.7517 11.336 11.8525 12.0972L11.8749 12.2987H10.3301L10.3189 12.1755C10.1958 11.392 9.78159 11.0338 9.03159 11.0338C8.55029 11.0338 8.18089 11.2017 7.93459 11.5487C7.67719 11.9069 7.54289 12.4554 7.53169 13.1718V13.7091C7.53169 14.4255 7.68839 14.974 7.97939 15.3658ZM14.483 17.1456H12.9271V9.81359H14.483V17.1456ZM20.4045 11.1457H17.1807V12.8695H19.9904V14.1904H17.1807V17.1456H15.6136V9.81359H20.3933V11.1457H20.4045Z" fill="black"/>
</g>
<defs>
<clipPath id="clip0_1_834">
<rect width="26" height="26" fill="white"/>
</clipPath>
</defs>
</svg>
